assets/svg/icon_message_retry.svg

<svg width="16" height="16" viewBox="0 0 16 16" fill="none" xmlns="http://www.w3.org/2000/svg">
<path d="M13.2289 3.26298L13.6442 2.82989L13.6442 2.82989L13.2289 3.26298ZM14.2073 4.20104H14.8073C14.8073 4.53241 14.5386 4.80104 14.2073 4.80104V4.20104ZM11.7643 4.80104C11.4329 4.80104 11.1643 4.53241 11.1643 4.20104C11.1643 3.86967 11.4329 3.60104 11.7643 3.60104V4.80104ZM13.6073 1.70435C13.6073 1.37298 13.8759 1.10435 14.2073 1.10435C14.5386 1.10435 14.8073 1.37298 14.8073 1.70435H13.6073ZM14.1209 10.3469C14.2569 10.0448 14.6121 9.9101 14.9143 10.0461C15.2164 10.1822 15.3511 10.5374 15.2151 10.8395L14.1209 10.3469ZM2.98066 2.87726C5.93786 0.0418779 10.7065 0.0132746 13.6442 2.82989L12.8137 3.69607C10.3479 1.33192 6.31187 1.34574 3.81116 3.74344L2.98066 2.87726ZM13.5948 13.124C10.6376 15.9594 5.86886 15.988 2.93125 13.1714L3.76175 12.3052C6.22746 14.6694 10.2635 14.6556 12.7642 12.2579L13.5948 13.124ZM2.93125 13.1714C-0.0211086 10.3407 0.00975895 5.72579 2.98066 2.87726L3.81116 3.74344C1.32416 6.12801 1.31078 9.95522 3.76175 12.3052L2.93125 13.1714ZM13.6442 2.82989L14.6225 3.76795L13.792 4.63413L12.8137 3.69607L13.6442 2.82989ZM14.2073 4.80104H11.7643V3.60104H14.2073V4.80104ZM13.6073 4.20104V1.70435H14.8073V4.20104H13.6073ZM15.2151 10.8395C14.8409 11.6707 14.2999 12.4479 13.5948 13.124L12.7642 12.2579C13.3583 11.6882 13.8098 11.0379 14.1209 10.3469L15.2151 10.8395Z" fill="#727689"/>
</svg>

<svg xmlns="http://www.w3.org/2000/svg" width="16" height="16" fill="none"><path fill="#727689" d="m13.229 3.263.415-.433zm.978.938h.6a.6.6 0 0 1-.6.6zm-2.443.6a.6.6 0 1 1 0-1.2zm1.843-3.097a.6.6 0 1 1 1.2 0zm.514 8.643a.6.6 0 0 1 1.094.492zM2.98 2.877C5.938.042 10.707.013 13.644 2.83l-.83.866c-2.466-2.364-6.502-2.35-9.003.047zm10.614 10.247c-2.957 2.835-7.726 2.864-10.664.047l.83-.866c2.466 2.364 6.503 2.35 9.003-.047zm-10.664.047C-.02 10.341.01 5.726 2.981 2.877l.83.866c-2.487 2.385-2.5 6.212-.05 8.562zM13.644 2.83l.979.938-.831.866-.978-.938zm.563 1.971h-2.443v-1.2h2.443zm-.6-.6V1.704h1.2v2.497zm1.608 6.639a7.3 7.3 0 0 1-1.62 2.284l-.83-.866a6.1 6.1 0 0 0 1.356-1.911z"/></svg>
